X:12224
T:Oak Tree, The
R:reel
D:Sharon Shannon
D:Tommy Peoples
D:Frankie Gavin: Frankie Goes to Town
Z:id:hn-reel-599
M:C|
K:D
FDAD FDAD|FAAF GEFD|~A,3B, CA,EA,|A,G,A,B, CDEG|
FDAD FDAD|FAAF GEFA|(3Bcd eg faec|1 d2ce dBAG:|2 d2ce dfeg||
|:fB~B2 fa^ge|fece ~f3e|cA~A2 fAeA|(3cBA ea fece|
fB~B2 fa^ge|fece faec|ABce ~a3e|1 faec dfeg:|2 faec dABc||
d2fd ~d2fd|c2ec ~c2ec|d2fd ~d2fg|gfge dcBc|
d2fd Adfd|c2ec Acec|dfaf gefd|(3Bcd ec dBAG||
